src/assets/ArrowDecoLeft.svg

<svg width="123" height="84" viewBox="0 0 123 84" fill="none" xmlns="http://www.w3.org/2000/svg">
<path d="M122.108 -3.16253e-05C121.844 14.0725 98.8355 43.2753 78.6876 55.9421C56.8867 69.6571 42.4323 73.2472 9.28559 72.9773C10.5224 74.6095 11.5568 75.8504 12.4543 77.1765C13.4376 78.6172 14.4154 80.0935 15.1123 81.6772C15.3383 82.1676 14.8621 83.3561 14.3507 83.6799C13.8714 83.9778 12.6632 83.841 12.2381 83.4204C8.61227 79.8062 5.06546 76.1006 1.55987 72.365C0.391342 71.1198 0.424858 69.783 1.84815 68.6425C7.09553 64.4511 12.278 60.1906 17.607 56.1047C18.8591 55.1422 20.5886 54.7855 22.5069 53.9784C22.8056 58.5205 19.3352 59.5915 17.4784 61.7026C15.5237 63.9358 13.1642 65.8162 10.5033 68.3089C20.4034 69.912 29.4915 69.6101 38.4854 67.9092C71.5258 61.6655 95.9036 43.03 113.456 14.8665C115.743 11.203 117.608 7.2711 119.706 3.48529C120.294 2.46588 121.039 1.54993 122.108 -3.16253e-05Z" fill="white"/>
</svg>

<svg width="123" height="84"><path d="M122.108 0c-.264 14.072-23.273 43.275-43.42 55.942C56.887 69.657 42.432 73.247 9.286 72.977c1.236 1.632 2.27 2.873 3.168 4.2.984 1.44 1.961 2.916 2.658 4.5.226.49-.25 1.68-.761 2.003-.48.298-1.688.161-2.113-.26C8.612 79.806 5.065 76.1 1.56 72.365.39 71.12.425 69.783 1.848 68.643c5.248-4.192 10.43-8.452 15.759-12.538 1.252-.963 2.982-1.32 4.9-2.127.299 4.542-3.172 5.614-5.029 7.725-1.954 2.233-4.314 4.113-6.975 6.606 9.9 1.603 18.988 1.301 27.982-.4 33.04-6.244 57.419-24.879 74.971-53.043 2.287-3.663 4.152-7.595 6.25-11.38.588-1.02 1.333-1.936 2.402-3.486Z"/></svg>
